images_elementary_svg/cmd/sc_griduse.svg

<svg viewBox="0 0 16 16" xmlns="http://www.w3.org/2000/svg" xmlns:xlink="http://www.w3.org/1999/xlink"><linearGradient id="a" gradientUnits="userSpaceOnUse" x1="11" x2="11" y1="5" y2="18"><stop offset="0" stop-color="#c6262e"/><stop offset="1" stop-color="#b5232a"/></linearGradient><linearGradient id="b" gradientUnits="userSpaceOnUse" x1="11" x2="11" y1="6.47" y2="15"><stop offset="0" stop-color="#fff"/><stop offset=".125" stop-color="#fff" stop-opacity=".235"/><stop offset=".939" stop-color="#fff" stop-opacity=".157"/><stop offset="1" stop-color="#fff" stop-opacity=".392"/></linearGradient>/&amp;gt;<path d="m1 2h1v1h-1zm4 0h1v1h-1zm4 0h1v1h-1zm4 0h1v1h-1zm-12 4h1v1h-1zm4 0h1v1h-1zm4 0h1v1h-1zm4 0h1v1h-1zm-12 4h1v1h-1zm4 0h1v1h-1zm-4 4h1v1h-1zm4 0h1v1h-1z" fill="#565656"/><path d="m10.374 6.484c.607-.003 1.126.05 1.555.148 2.435.56 3.516 1.604 3.546 3.868-.077 1.845-.905 2.918-2.832 3.822-.444.11-1.495.176-2.246.18l-3.89.017-.007-3.019 4.083-.004c2.002-.052 1.984-1.945.004-2.002l-4.083.003v-2.995z" fill="url(#a)" stroke="#2a0303" stroke-opacity=".49" transform="translate(0 1)"/><path d="m6.507 7.502v2.996l2.502-.008v-2.988zm2.507 4.99-2.502.01.006 2.51h2.502z" fill="#eee" fill-opacity=".761"/><path d="m10.373 7.485-3.866.017v1l3.866-.017c.608-.002 1.128.05 1.557.148 2.097.598 3.52 2.718 3.548 2.867-.03-2.264-1.112-3.307-3.548-3.867-.43-.1-.95-.15-1.557-.148zm1.508 3.497c.67 1.253-.51 1.666-1.293 1.516l-4.083.003.002 1h4.08c1.37-.037 1.798-1.946 1.296-2.517z" fill="#206b00" opacity=".1" stroke="#fff"/><path d="m10.377 7.47-2.91.015.025 1.024h3.123c2.492.09 2.876 2.413 1.678 3.46-.454.333-1.03.495-1.682.512h-.02l-3.1-.002.028 1.04 2.903-.013c.663-.002 1.66-.094 1.92-.143 1.44-.635 2.22-1.848 2.145-2.887.155-1.858-1.366-2.7-2.775-2.885-.334-.077-.783-.125-1.333-.123z" fill="none" opacity=".53" stroke="url(#b)" stroke-opacity=".915" transform="translate(0 1)"/></svg>

<svg xmlns="http://www.w3.org/2000/svg" xmlns:xlink="http://www.w3.org/1999/xlink" viewBox="0 0 16 16"><defs><linearGradient gradientTransform="translate(-35.985 -5)" xlink:href="#a" id="d" x1="46.985" y1="10" x2="46.985" y2="23" gradientUnits="userSpaceOnUse"/><linearGradient id="a"><stop offset="0" stop-color="#c6262e"/><stop offset="1" stop-color="#b5232a"/></linearGradient><linearGradient gradientTransform="translate(-35.985 -5)" xlink:href="#b" id="e" x1="46.985" y1="11.47" x2="46.985" y2="20" gradientUnits="userSpaceOnUse"/><linearGradient id="b" gradientTransform="matrix(0 -.59172 -.63517 0 9.814 30.722)" gradientUnits="userSpaceOnUse" x1="38.941" x2="20.576" y1="15.991" y2="15.991"><stop offset="0" stop-color="#fff"/><stop offset=".125" stop-color="#fff" stop-opacity=".235"/><stop offset=".939" stop-color="#fff" stop-opacity=".157"/><stop offset="1" stop-color="#fff" stop-opacity=".392"/></linearGradient></defs><linearGradient id="c"><stop offset="0" stop-color="#d88f22"/><stop offset="1" stop-color="#d88f22" stop-opacity="0"/></linearGradient>/&gt;<g fill="#565656"><path d="M1 2h1v1H1zM5 2h1v1H5zM9 2h1v1H9zM13 2h1v1h-1zM1 6h1v1H1zM5 6h1v1H5zM9 6h1v1H9zM13 6h1v1h-1zM1 10h1v1H1zM5 10h1v1H5zM1 14h1v1H1zM5 14h1v1H5z"/></g><g font-weight="bold" letter-spacing="0" word-spacing="0" font-family="Aharoni"><path style="line-height:1.25;-inkscape-font-specification:'Aharoni Bold'" d="M10.374 6.484c.607-.003 1.126.05 1.555.148 2.435.56 3.516 1.604 3.546 3.868-.077 1.845-.905 2.918-2.832 3.822-.444.11-1.495.176-2.246.18l-3.89.017L6.5 11.5l4.083-.004c2.002-.052 1.984-1.945.004-2.002l-4.083.003V6.502z" transform="translate(0 1)" fill="url(#d)" stroke="#2a0303" stroke-opacity=".49"/><path style="line-height:1.25;-inkscape-font-specification:'Aharoni Bold'" d="M6.507 7.502v2.996l2.502-.008V7.502zm2.507 4.99l-2.502.01.006 2.51H9.02z" fill="#eee" fill-opacity=".761"/><path style="line-height:1.25;-inkscape-font-specification:'Aharoni Bold'" d="M10.373 7.485l-3.866.017v1l3.866-.017c.608-.002 1.128.05 1.557.148 2.097.598 3.52 2.718 3.548 2.867-.03-2.264-1.112-3.307-3.548-3.867-.43-.1-.95-.15-1.557-.148zm1.508 3.497c.67 1.253-.51 1.666-1.293 1.516l-4.083.003.002 1h4.08c1.37-.037 1.798-1.946 1.296-2.517z" opacity=".1" fill="#206b00" stroke="#fff"/><path d="M10.377 7.47l-2.91.015.025 1.024h3.123c2.492.09 2.876 2.413 1.678 3.46-.454.333-1.03.495-1.682.512h-.02l-3.1-.002.028 1.04 2.903-.013c.663-.002 1.66-.094 1.92-.143 1.44-.635 2.22-1.848 2.145-2.887.155-1.858-1.366-2.7-2.775-2.885-.334-.077-.783-.125-1.333-.123z" style="line-height:1.25;-inkscape-font-specification:'Aharoni Bold'" transform="translate(0 1)" opacity=".53" fill="none" stroke="url(#e)" stroke-opacity=".915"/></g></svg>
